img/app-google-black.svg

<svg width="149" height="44" viewBox="0 0 149 44" fill="none" xmlns="http://www.w3.org/2000/svg">
    <rect x="0.5" y="0.5" width="147.5" height="43" rx="4.5" fill="black"/>
    <path d="M74.9496 23.9264C72.3624 23.9264 70.2537 25.8943 70.2537 28.6047C70.2537 31.2986 72.3624 33.283 74.9496 33.283C77.5379 33.283 79.6466 31.2986 79.6466 28.6047C79.6455 25.8943 77.5368 23.9264 74.9496 23.9264ZM74.9496 31.4416C73.5317 31.4416 72.3096 30.2723 72.3096 28.6058C72.3096 26.9217 73.5328 25.77 74.9496 25.77C76.3675 25.77 77.5896 26.9217 77.5896 28.6058C77.5896 30.2712 76.3675 31.4416 74.9496 31.4416ZM64.7042 23.9264C62.117 23.9264 60.0083 25.8943 60.0083 28.6047C60.0083 31.2986 62.117 33.283 64.7042 33.283C67.2925 33.283 69.4012 31.2986 69.4012 28.6047C69.4012 25.8943 67.2925 23.9264 64.7042 23.9264ZM64.7042 31.4416C63.2863 31.4416 62.0642 30.2723 62.0642 28.6058C62.0642 26.9217 63.2874 25.77 64.7042 25.77C66.1221 25.77 67.3442 26.9217 67.3442 28.6058C67.3453 30.2712 66.1221 31.4416 64.7042 31.4416ZM52.5184 25.363V27.3474H57.2682C57.1263 28.4639 56.7545 29.279 56.1869 29.8455C55.4961 30.5363 54.4148 31.2986 52.5184 31.2986C49.5946 31.2986 47.3088 28.9413 47.3088 26.0175C47.3088 23.0937 49.5946 20.7364 52.5184 20.7364C54.0958 20.7364 55.2475 21.3568 56.0978 22.1543L57.4981 20.754C56.3101 19.6199 54.7338 18.752 52.5184 18.752C48.5133 18.752 45.1462 22.0124 45.1462 26.0175C45.1462 30.0226 48.5133 33.283 52.5184 33.283C54.6799 33.283 56.3112 32.5735 57.5861 31.2447C58.8973 29.9335 59.3054 28.0899 59.3054 26.6016C59.3054 26.1418 59.2702 25.7161 59.1987 25.3619H52.5184V25.363ZM102.357 26.9041C101.968 25.8591 100.78 23.9264 98.3521 23.9264C95.942 23.9264 93.9389 25.8228 93.9389 28.6047C93.9389 31.2271 95.9244 33.283 98.582 33.283C100.726 33.283 101.967 31.9718 102.481 31.2095L100.886 30.1458C100.355 30.9257 99.6281 31.4394 98.582 31.4394C97.537 31.4394 96.7923 30.9609 96.3138 30.0215L102.569 27.4343L102.357 26.9041ZM95.9772 28.4639C95.9244 26.6555 97.3775 25.7348 98.4236 25.7348C99.2387 25.7348 99.9295 26.1429 100.16 26.727L95.9772 28.4639ZM90.8919 33.0003H92.9467V19.2492H90.8919V33.0003ZM87.5237 24.9725H87.4533C86.9924 24.4225 86.1058 23.9264 84.9904 23.9264C82.6507 23.9264 80.5068 25.9823 80.5068 28.6234C80.5068 31.2458 82.6507 33.2841 84.9904 33.2841C86.1069 33.2841 86.9924 32.788 87.4533 32.2215H87.5237V32.8947C87.5237 34.6844 86.5667 35.6414 85.0256 35.6414C83.7672 35.6414 82.9873 34.7383 82.6683 33.976L80.8786 34.7207C81.3923 35.9604 82.7563 37.485 85.0256 37.485C87.4357 37.485 89.474 36.0671 89.474 32.6109V24.2113H87.5248V24.9725H87.5237ZM85.1675 31.4416C83.7496 31.4416 82.5627 30.2536 82.5627 28.6234C82.5627 26.9745 83.7496 25.77 85.1675 25.77C86.5667 25.77 87.6656 26.9745 87.6656 28.6234C87.6656 30.2536 86.5667 31.4416 85.1675 31.4416ZM111.987 19.2492H107.068V33.0003H109.12V27.7907H111.985C114.26 27.7907 116.498 26.144 116.498 23.5205C116.498 20.897 114.261 19.2492 111.987 19.2492ZM112.039 25.8767H109.12V21.1632H112.039C113.574 21.1632 114.445 22.4337 114.445 23.5205C114.445 24.5853 113.574 25.8767 112.039 25.8767ZM124.725 23.9022C123.238 23.9022 121.7 24.5567 121.063 26.0076L122.884 26.7677C123.274 26.0076 124 25.759 124.76 25.759C125.821 25.759 126.9 26.3959 126.918 27.5278V27.6697C126.546 27.4574 125.75 27.1395 124.777 27.1395C122.814 27.1395 120.814 28.2186 120.814 30.2349C120.814 32.0752 122.424 33.2599 124.228 33.2599C125.608 33.2599 126.369 32.6406 126.846 31.9146H126.917V32.9761H128.899V27.7038C128.9 25.264 127.076 23.9022 124.725 23.9022ZM124.476 31.4383C123.805 31.4383 122.867 31.1017 122.867 30.2701C122.867 29.2086 124.035 28.8016 125.044 28.8016C125.944 28.8016 126.37 28.9963 126.918 29.2614C126.758 30.5363 125.662 31.4383 124.476 31.4383ZM136.117 24.2025L133.764 30.1645H133.694L131.252 24.2025H129.041L132.703 32.535L130.615 37.1704H132.756L138.4 24.2025H136.117ZM117.631 33.0003H119.682V19.2492H117.631V33.0003Z" fill="white"/>
    <path d="M52.1599 11.2673C52.1599 12.1891 51.8871 12.9228 51.3404 13.4706C50.72 14.1218 49.9104 14.4474 48.916 14.4474C47.9634 14.4474 47.1527 14.1174 46.4872 13.4574C45.8206 12.7963 45.4873 11.9779 45.4873 11.0011C45.4873 10.0232 45.8206 9.20476 46.4872 8.54476C47.1527 7.88366 47.9634 7.55366 48.916 7.55366C49.389 7.55366 49.8411 7.64606 50.2701 7.82976C50.7002 8.01456 51.0445 8.25986 51.3019 8.56676L50.7222 9.14756C50.2855 8.62506 49.6838 8.36436 48.9149 8.36436C48.2197 8.36436 47.6191 8.60856 47.112 9.09696C46.6049 9.58536 46.3519 10.2201 46.3519 11C46.3519 11.7799 46.6049 12.4146 47.112 12.903C47.6191 13.3914 48.2197 13.6356 48.9149 13.6356C49.6519 13.6356 50.2668 13.3903 50.7585 12.8986C51.0775 12.5785 51.2623 12.133 51.3118 11.5621H48.9149V10.769H52.1126C52.1456 10.9417 52.1599 11.1078 52.1599 11.2673Z" fill="white"/>
    <path d="M57.231 8.51072H54.2258V10.6029H56.9362V11.396H54.2258V13.4882H57.231V14.3H53.3777V7.70002H57.231V8.51072Z" fill="white"/>
    <path d="M60.8069 14.3H59.9588V8.51072H58.1152V7.70002H62.6505V8.51072H60.8069V14.3Z" fill="white"/>
    <path d="M65.9318 14.3V7.70002H66.7799V14.3H65.9318Z" fill="white"/>
    <path d="M70.541 14.3H69.6929V8.51072H67.8493V7.70002H72.3846V8.51072H70.541V14.3Z" fill="white"/>
    <path d="M80.9698 13.4475C80.3208 14.1141 79.5145 14.4474 78.5498 14.4474C77.5851 14.4474 76.7788 14.1141 76.1309 13.4475C75.4819 12.7809 75.1585 11.9647 75.1585 11C75.1585 10.0353 75.4819 9.21911 76.1309 8.55251C76.7788 7.88591 77.5851 7.55151 78.5498 7.55151C79.509 7.55151 80.3142 7.88701 80.9654 8.55691C81.6166 9.22681 81.9422 10.0408 81.9422 11C81.9422 11.9647 81.6177 12.7809 80.9698 13.4475ZM76.7568 12.8942C77.2452 13.3892 77.8425 13.6356 78.5498 13.6356C79.2571 13.6356 79.8555 13.3881 80.3428 12.8942C80.8312 12.3992 81.0765 11.7678 81.0765 11C81.0765 10.2322 80.8312 9.60081 80.3428 9.10581C79.8555 8.61081 79.2571 8.36441 78.5498 8.36441C77.8425 8.36441 77.2452 8.61191 76.7568 9.10581C76.2695 9.60081 76.0242 10.2322 76.0242 11C76.0242 11.7678 76.2695 12.3992 76.7568 12.8942Z" fill="white"/>
    <path d="M83.1324 14.3V7.70002H84.1642L87.3718 12.8337H87.4081L87.3718 11.5621V7.70002H88.2199V14.3H87.3344L83.9783 8.91663H83.942L83.9783 10.1882V14.3H83.1324Z" fill="white"/>
    <path d="M52.1599 11.2673C52.1599 12.1891 51.8871 12.9228 51.3404 13.4706C50.72 14.1218 49.9104 14.4474 48.916 14.4474C47.9634 14.4474 47.1527 14.1174 46.4872 13.4574C45.8206 12.7963 45.4873 11.9779 45.4873 11.0011C45.4873 10.0232 45.8206 9.20476 46.4872 8.54476C47.1527 7.88366 47.9634 7.55366 48.916 7.55366C49.389 7.55366 49.8411 7.64606 50.2701 7.82976C50.7002 8.01456 51.0445 8.25986 51.3019 8.56676L50.7222 9.14756C50.2855 8.62506 49.6838 8.36436 48.9149 8.36436C48.2197 8.36436 47.6191 8.60856 47.112 9.09696C46.6049 9.58536 46.3519 10.2201 46.3519 11C46.3519 11.7799 46.6049 12.4146 47.112 12.903C47.6191 13.3914 48.2197 13.6356 48.9149 13.6356C49.6519 13.6356 50.2668 13.3903 50.7585 12.8986C51.0775 12.5785 51.2623 12.133 51.3118 11.5621H48.9149V10.769H52.1126C52.1456 10.9417 52.1599 11.1078 52.1599 11.2673Z" stroke="white" stroke-width="0.2" stroke-miterlimit="10"/>
    <path d="M57.231 8.51072H54.2258V10.6029H56.9362V11.396H54.2258V13.4882H57.231V14.3H53.3777V7.70002H57.231V8.51072Z" stroke="white" stroke-width="0.2" stroke-miterlimit="10"/>
    <path d="M60.8069 14.3H59.9588V8.51072H58.1152V7.70002H62.6505V8.51072H60.8069V14.3Z" stroke="white" stroke-width="0.2" stroke-miterlimit="10"/>
    <path d="M65.9318 14.3V7.70002H66.7799V14.3H65.9318Z" stroke="white" stroke-width="0.2" stroke-miterlimit="10"/>
    <path d="M70.541 14.3H69.6929V8.51072H67.8493V7.70002H72.3846V8.51072H70.541V14.3Z" stroke="white" stroke-width="0.2" stroke-miterlimit="10"/>
    <path d="M80.9698 13.4475C80.3208 14.1141 79.5145 14.4474 78.5498 14.4474C77.5851 14.4474 76.7788 14.1141 76.1309 13.4475C75.4819 12.7809 75.1585 11.9647 75.1585 11C75.1585 10.0353 75.4819 9.21911 76.1309 8.55251C76.7788 7.88591 77.5851 7.55151 78.5498 7.55151C79.509 7.55151 80.3142 7.88701 80.9654 8.55691C81.6166 9.22681 81.9422 10.0408 81.9422 11C81.9422 11.9647 81.6177 12.7809 80.9698 13.4475ZM76.7568 12.8942C77.2452 13.3892 77.8425 13.6356 78.5498 13.6356C79.2571 13.6356 79.8555 13.3881 80.3428 12.8942C80.8312 12.3992 81.0765 11.7678 81.0765 11C81.0765 10.2322 80.8312 9.60081 80.3428 9.10581C79.8555 8.61081 79.2571 8.36441 78.5498 8.36441C77.8425 8.36441 77.2452 8.61191 76.7568 9.10581C76.2695 9.60081 76.0242 10.2322 76.0242 11C76.0242 11.7678 76.2695 12.3992 76.7568 12.8942Z" stroke="white" stroke-width="0.2" stroke-miterlimit="10"/>
    <path d="M83.1324 14.3V7.70002H84.1642L87.3718 12.8337H87.4081L87.3718 11.5621V7.70002H88.2199V14.3H87.3344L83.9783 8.91663H83.942L83.9783 10.1882V14.3H83.1324Z" stroke="white" stroke-width="0.2" stroke-miterlimit="10"/>
    <g filter="url(#filter0_ii_17_1416)">
        <path d="M11.4796 8.29173C11.1595 8.63053 10.9703 9.15633 10.9703 9.83723V34.1648C10.9703 34.8468 11.1595 35.3715 11.4796 35.7103L11.561 35.7895L25.1889 22.1616V22.001V21.8404L11.561 8.21143L11.4796 8.29173Z" fill="url(#paint0_linear_17_1416)"/>
        <path d="M29.7308 26.7057L25.1889 22.1616V22.001V21.8404L29.7319 17.2974L29.8342 17.3557L35.2165 20.4137C36.7532 21.2871 36.7532 22.716 35.2165 23.5905L29.8342 26.6485L29.7308 26.7057Z" fill="url(#paint1_linear_17_1416)"/>
        <g filter="url(#filter1_i_17_1416)">
            <path d="M29.8342 26.6474L25.1878 22.001L11.4796 35.7103C11.9856 36.2471 12.8227 36.3131 13.7654 35.7785L29.8342 26.6474Z" fill="url(#paint2_linear_17_1416)"/>
        </g>
        <path d="M29.8342 17.3547L13.7654 8.22466C12.8227 7.68896 11.9856 7.75606 11.4796 8.29286L25.1889 22.0022L29.8342 17.3547Z" fill="url(#paint3_linear_17_1416)"/>
    </g>
    <rect x="0.5" y="0.5" width="147.5" height="43" rx="4.5" stroke="#A6A6A6"/>
    <defs>
        <filter id="filter0_ii_17_1416" x="10.9703" y="7.85498" width="25.3987" height="28.2927" filterUnits="userSpaceOnUse" color-interpolation-filters="sRGB">
            <feFlood flood-opacity="0" result="BackgroundImageFix"/>
            <feBlend mode="normal" in="SourceGraphic" in2="BackgroundImageFix" result="shape"/>
            <feColorMatrix in="SourceAlpha" type="matrix" values="0 0 0 0 0 0 0 0 0 0 0 0 0 0 0 0 0 0 127 0" result="hardAlpha"/>
            <feOffset dy="-0.15"/>
            <feComposite in2="hardAlpha" operator="arithmetic" k2="-1" k3="1"/>
            <feColorMatrix type="matrix" values="0 0 0 0 0 0 0 0 0 0 0 0 0 0 0 0 0 0 0.12 0"/>
            <feBlend mode="normal" in2="shape" result="effect1_innerShadow_17_1416"/>
            <feColorMatrix in="SourceAlpha" type="matrix" values="0 0 0 0 0 0 0 0 0 0 0 0 0 0 0 0 0 0 127 0" result="hardAlpha"/>
            <feOffset dy="0.15"/>
            <feComposite in2="hardAlpha" operator="arithmetic" k2="-1" k3="1"/>
            <feColorMatrix type="matrix" values="0 0 0 0 1 0 0 0 0 1 0 0 0 0 1 0 0 0 0.25 0"/>
            <feBlend mode="normal" in2="effect1_innerShadow_17_1416" result="effect2_innerShadow_17_1416"/>
        </filter>
        <filter id="filter1_i_17_1416" x="11.4796" y="22.001" width="18.3546" height="14.1467" filterUnits="userSpaceOnUse" color-interpolation-filters="sRGB">
            <feFlood flood-opacity="0" result="BackgroundImageFix"/>
            <feBlend mode="normal" in="SourceGraphic" in2="BackgroundImageFix" result="shape"/>
            <feColorMatrix in="SourceAlpha" type="matrix" values="0 0 0 0 0 0 0 0 0 0 0 0 0 0 0 0 0 0 127 0" result="hardAlpha"/>
            <feOffset dy="-0.15"/>
            <feComposite in2="hardAlpha" operator="arithmetic" k2="-1" k3="1"/>
            <feColorMatrix type="matrix" values="0 0 0 0 0 0 0 0 0 0 0 0 0 0 0 0 0 0 0.08 0"/>
            <feBlend mode="normal" in2="shape" result="effect1_innerShadow_17_1416"/>
        </filter>
        <linearGradient id="paint0_linear_17_1416" x1="23.9809" y1="9.57983" x2="5.5207" y2="28.04" gradientUnits="userSpaceOnUse">
            <stop stop-color="#00A0FF"/>
            <stop offset="0.0066" stop-color="#00A1FF"/>
            <stop offset="0.2601" stop-color="#00BEFF"/>
            <stop offset="0.5122" stop-color="#00D2FF"/>
            <stop offset="0.7604" stop-color="#00DFFF"/>
            <stop offset="1" stop-color="#00E3FF"/>
        </linearGradient>
        <linearGradient id="paint1_linear_17_1416" x1="37.2168" y1="22.001" x2="10.6014" y2="22.001" gradientUnits="userSpaceOnUse">
            <stop stop-color="#FFE000"/>
            <stop offset="0.4087" stop-color="#FFBD00"/>
            <stop offset="0.7754" stop-color="#FFA500"/>
            <stop offset="1" stop-color="#FF9C00"/>
        </linearGradient>
        <linearGradient id="paint2_linear_17_1416" x1="27.3109" y1="24.5243" x2="2.27657" y2="49.5586" gradientUnits="userSpaceOnUse">
            <stop stop-color="#FF3A44"/>
            <stop offset="1" stop-color="#C31162"/>
        </linearGradient>
        <linearGradient id="paint3_linear_17_1416" x1="8.02714" y1="0.194443" x2="19.2057" y2="11.373" gradientUnits="userSpaceOnUse">
            <stop stop-color="#32A071"/>
            <stop offset="0.0685" stop-color="#2DA771"/>
            <stop offset="0.4762" stop-color="#15CF74"/>
            <stop offset="0.8009" stop-color="#06E775"/>
            <stop offset="1" stop-color="#00F076"/>
        </linearGradient>
    </defs>
</svg>

<svg width="149" height="44" fill="none" xmlns="http://www.w3.org/2000/svg"><rect x=".5" y=".5" width="147.5" height="43" rx="4.5" fill="#000"/><path d="M74.95 23.926c-2.588 0-4.696 1.968-4.696 4.679 0 2.694 2.108 4.678 4.696 4.678 2.588 0 4.697-1.984 4.697-4.678-.002-2.71-2.11-4.679-4.697-4.679zm0 7.516c-1.418 0-2.64-1.17-2.64-2.836 0-1.684 1.223-2.836 2.64-2.836 1.418 0 2.64 1.152 2.64 2.836 0 1.665-1.222 2.836-2.64 2.836zm-10.246-7.516c-2.587 0-4.696 1.968-4.696 4.679 0 2.694 2.109 4.678 4.696 4.678 2.589 0 4.697-1.984 4.697-4.678 0-2.71-2.108-4.679-4.697-4.679zm0 7.516c-1.418 0-2.64-1.17-2.64-2.836 0-1.684 1.223-2.836 2.64-2.836 1.418 0 2.64 1.152 2.64 2.836.001 1.665-1.222 2.836-2.64 2.836zm-12.186-6.079v1.984h4.75c-.142 1.117-.514 1.932-1.081 2.498-.69.691-1.772 1.454-3.669 1.454-2.923 0-5.21-2.358-5.21-5.282 0-2.923 2.287-5.28 5.21-5.28 1.578 0 2.73.62 3.58 1.417l1.4-1.4c-1.188-1.134-2.764-2.002-4.98-2.002-4.005 0-7.372 3.26-7.372 7.265 0 4.006 3.367 7.266 7.372 7.266 2.162 0 3.793-.71 5.068-2.038 1.311-1.312 1.72-3.155 1.72-4.643 0-.46-.036-.886-.107-1.24h-6.68v.001zm49.839 1.541c-.389-1.045-1.577-2.978-4.005-2.978-2.41 0-4.413 1.897-4.413 4.679 0 2.622 1.985 4.678 4.643 4.678 2.144 0 3.385-1.311 3.899-2.074l-1.595-1.063c-.531.78-1.258 1.293-2.304 1.293-1.045 0-1.79-.478-2.268-1.418l6.255-2.587-.212-.53zm-6.38 1.56c-.053-1.808 1.4-2.73 2.447-2.73.815 0 1.505.409 1.736.993l-4.183 1.737zM90.892 33h2.055V19.25h-2.055V33zm-3.368-8.027h-.07c-.462-.55-1.348-1.047-2.464-1.047-2.34 0-4.483 2.056-4.483 4.697 0 2.623 2.144 4.661 4.483 4.661 1.117 0 2.002-.496 2.463-1.063h.07v.674c0 1.79-.956 2.746-2.497 2.746-1.259 0-2.039-.903-2.358-1.665l-1.79.745c.514 1.24 1.878 2.764 4.148 2.764 2.41 0 4.448-1.418 4.448-4.874v-8.4h-1.95v.762zm-2.356 6.469c-1.418 0-2.605-1.188-2.605-2.819 0-1.649 1.187-2.853 2.605-2.853 1.399 0 2.498 1.204 2.498 2.853 0 1.63-1.1 2.819-2.498 2.819zm26.819-12.193h-4.919V33h2.052v-5.21h2.865c2.275 0 4.513-1.646 4.513-4.27 0-2.623-2.237-4.27-4.511-4.27zm.052 6.628h-2.919v-4.714h2.919c1.535 0 2.406 1.27 2.406 2.357 0 1.065-.871 2.357-2.406 2.357zm12.686-1.975c-1.487 0-3.025.655-3.662 2.106l1.821.76c.39-.76 1.116-1.009 1.876-1.009 1.061 0 2.14.637 2.158 1.769v.142c-.372-.213-1.168-.53-2.141-.53-1.963 0-3.963 1.079-3.963 3.095 0 1.84 1.61 3.025 3.414 3.025 1.38 0 2.141-.62 2.618-1.345h.071v1.061h1.982v-5.272c.001-2.44-1.823-3.802-4.174-3.802zm-.249 7.536c-.671 0-1.609-.336-1.609-1.168 0-1.061 1.168-1.468 2.177-1.468.9 0 1.326.194 1.874.46a2.489 2.489 0 01-2.442 2.176zm11.641-7.235l-2.353 5.962h-.07l-2.442-5.962h-2.211l3.662 8.332-2.088 4.635h2.141l5.644-12.968h-2.283zM117.631 33h2.051V19.25h-2.051V33zM52.16 11.267c0 .922-.273 1.656-.82 2.204-.62.65-1.43.976-2.424.976-.953 0-1.763-.33-2.429-.99-.666-.66-1-1.48-1-2.456 0-.978.334-1.796 1-2.456.666-.661 1.476-.991 2.429-.991.473 0 .925.092 1.354.276.43.185.774.43 1.032.737l-.58.58c-.437-.522-1.038-.783-1.807-.783a2.51 2.51 0 00-1.803.733c-.507.488-.76 1.123-.76 1.903s.253 1.415.76 1.903a2.51 2.51 0 001.803.733c.737 0 1.352-.246 1.843-.737.32-.32.504-.766.554-1.337h-2.397v-.793h3.198c.033.173.047.339.047.498zm5.071-2.757h-3.005v2.093h2.71v.793h-2.71v2.092h3.005v.812h-3.853V7.7h3.853v.81zm3.576 5.79h-.848V8.51h-1.844V7.7h4.535v.81h-1.843v5.79zm5.125 0V7.7h.848v6.6h-.848zm4.609 0h-.848V8.51h-1.844V7.7h4.536v.81H70.54v5.79zm10.429-.853c-.65.667-1.456 1-2.42 1-.965 0-1.771-.333-2.42-1-.648-.666-.971-1.482-.971-2.447 0-.965.323-1.78.972-2.447.648-.667 1.454-1.001 2.419-1.001.959 0 1.764.335 2.415 1.005.652.67.977 1.484.977 2.443 0 .965-.324 1.78-.972 2.447zm-4.213-.553a2.42 2.42 0 001.793.742c.707 0 1.306-.248 1.793-.742.488-.495.733-1.126.733-1.894s-.245-1.4-.733-1.894a2.42 2.42 0 00-1.793-.742c-.707 0-1.305.248-1.793.742-.488.495-.733 1.126-.733 1.894s.245 1.4.733 1.894zm6.375 1.406V7.7h1.032l3.208 5.134h.036l-.036-1.272V7.7h.848v6.6h-.886l-3.356-5.383h-.036l.036 1.271V14.3h-.846z" fill="#fff"/><path d="M52.16 11.267c0 .922-.273 1.656-.82 2.204-.62.65-1.43.976-2.424.976-.953 0-1.763-.33-2.429-.99-.666-.66-1-1.48-1-2.456 0-.978.334-1.796 1-2.456.666-.661 1.476-.991 2.429-.991.473 0 .925.092 1.354.276.43.185.774.43 1.032.737l-.58.58c-.437-.522-1.038-.783-1.807-.783a2.51 2.51 0 00-1.803.733c-.507.488-.76 1.123-.76 1.903s.253 1.415.76 1.903a2.51 2.51 0 001.803.733c.737 0 1.352-.246 1.843-.737.32-.32.504-.766.554-1.337h-2.397v-.793h3.198c.033.173.047.339.047.498zm5.071-2.757h-3.005v2.093h2.71v.793h-2.71v2.092h3.005v.812h-3.853V7.7h3.853v.81zm3.576 5.79h-.848V8.51h-1.844V7.7h4.535v.81h-1.843v5.79zm5.125 0V7.7h.848v6.6h-.848zm4.609 0h-.848V8.51h-1.844V7.7h4.536v.81H70.54v5.79zm10.429-.853c-.65.667-1.456 1-2.42 1-.965 0-1.771-.333-2.42-1-.648-.666-.971-1.482-.971-2.447 0-.965.323-1.78.972-2.447.648-.667 1.454-1.001 2.419-1.001.959 0 1.764.335 2.415 1.005.652.67.977 1.484.977 2.443 0 .965-.324 1.78-.972 2.447zm-4.213-.553a2.42 2.42 0 001.793.742c.707 0 1.306-.248 1.793-.742.488-.495.733-1.126.733-1.894s-.245-1.4-.733-1.894a2.42 2.42 0 00-1.793-.742c-.707 0-1.305.248-1.793.742-.488.495-.733 1.126-.733 1.894s.245 1.4.733 1.894zm6.375 1.406V7.7h1.032l3.208 5.134h.036l-.036-1.272V7.7h.848v6.6h-.886l-3.356-5.383h-.036l.036 1.271V14.3h-.846z" stroke="#fff" stroke-width=".2" stroke-miterlimit="10"/><g filter="url(#filter0_ii_17_1416)"><path d="M11.48 8.292c-.32.339-.51.864-.51 1.545v24.328c0 .682.19 1.206.51 1.545l.081.08 13.628-13.628v-.321L11.56 8.21l-.081.08z" fill="url(#paint0_linear_17_1416)"/><path d="M29.73 26.706l-4.541-4.544v-.321l4.543-4.544.102.059 5.383 3.058c1.536.873 1.536 2.302 0 3.176l-5.383 3.058-.103.058z" fill="url(#paint1_linear_17_1416)"/><g filter="url(#filter1_i_17_1416)"><path d="M29.834 26.647l-4.646-4.646-13.708 13.71c.506.536 1.343.602 2.285.068l16.07-9.132z" fill="url(#paint2_linear_17_1416)"/></g><path d="M29.834 17.355l-16.069-9.13c-.942-.536-1.78-.469-2.285.068l13.709 13.71 4.645-4.648z" fill="url(#paint3_linear_17_1416)"/></g><rect x=".5" y=".5" width="147.5" height="43" rx="4.5" stroke="#A6A6A6"/><defs><linearGradient id="paint0_linear_17_1416" x1="23.981" y1="9.58" x2="5.521" y2="28.04" gradientUnits="userSpaceOnUse"><stop stop-color="#00A0FF"/><stop offset=".007" stop-color="#00A1FF"/><stop offset=".26" stop-color="#00BEFF"/><stop offset=".512" stop-color="#00D2FF"/><stop offset=".76" stop-color="#00DFFF"/><stop offset="1" stop-color="#00E3FF"/></linearGradient><linearGradient id="paint1_linear_17_1416" x1="37.217" y1="22.001" x2="10.601" y2="22.001" gradientUnits="userSpaceOnUse"><stop stop-color="#FFE000"/><stop offset=".409" stop-color="#FFBD00"/><stop offset=".775" stop-color="orange"/><stop offset="1" stop-color="#FF9C00"/></linearGradient><linearGradient id="paint2_linear_17_1416" x1="27.311" y1="24.524" x2="2.277" y2="49.559" gradientUnits="userSpaceOnUse"><stop stop-color="#FF3A44"/><stop offset="1" stop-color="#C31162"/></linearGradient><linearGradient id="paint3_linear_17_1416" x1="8.027" y1=".194" x2="19.206" y2="11.373" gradientUnits="userSpaceOnUse"><stop stop-color="#32A071"/><stop offset=".069" stop-color="#2DA771"/><stop offset=".476" stop-color="#15CF74"/><stop offset=".801" stop-color="#06E775"/><stop offset="1" stop-color="#00F076"/></linearGradient><filter id="filter0_ii_17_1416" x="10.97" y="7.855" width="25.399" height="28.293" filterUnits="userSpaceOnUse" color-interpolation-filters="sRGB"><feFlood flood-opacity="0" result="BackgroundImageFix"/><feBlend in="SourceGraphic" in2="BackgroundImageFix" result="shape"/><feColorMatrix in="SourceAlpha" values="0 0 0 0 0 0 0 0 0 0 0 0 0 0 0 0 0 0 127 0" result="hardAlpha"/><feOffset dy="-.15"/><feComposite in2="hardAlpha" operator="arithmetic" k2="-1" k3="1"/><feColorMatrix values="0 0 0 0 0 0 0 0 0 0 0 0 0 0 0 0 0 0 0.12 0"/><feBlend in2="shape" result="effect1_innerShadow_17_1416"/><feColorMatrix in="SourceAlpha" values="0 0 0 0 0 0 0 0 0 0 0 0 0 0 0 0 0 0 127 0" result="hardAlpha"/><feOffset dy=".15"/><feComposite in2="hardAlpha" operator="arithmetic" k2="-1" k3="1"/><feColorMatrix values="0 0 0 0 1 0 0 0 0 1 0 0 0 0 1 0 0 0 0.25 0"/><feBlend in2="effect1_innerShadow_17_1416" result="effect2_innerShadow_17_1416"/></filter><filter id="filter1_i_17_1416" x="11.48" y="22.001" width="18.355" height="14.147" filterUnits="userSpaceOnUse" color-interpolation-filters="sRGB"><feFlood flood-opacity="0" result="BackgroundImageFix"/><feBlend in="SourceGraphic" in2="BackgroundImageFix" result="shape"/><feColorMatrix in="SourceAlpha" values="0 0 0 0 0 0 0 0 0 0 0 0 0 0 0 0 0 0 127 0" result="hardAlpha"/><feOffset dy="-.15"/><feComposite in2="hardAlpha" operator="arithmetic" k2="-1" k3="1"/><feColorMatrix values="0 0 0 0 0 0 0 0 0 0 0 0 0 0 0 0 0 0 0.08 0"/><feBlend in2="shape" result="effect1_innerShadow_17_1416"/></filter></defs></svg>
